assets/images/simple-illustrations/simple-illustration__calendar-monthly.svg

<svg viewBox="0 0 48 48" fill="none" xmlns="http://www.w3.org/2000/svg">
<path d="M18.1597 14.3403C18.6819 14.3403 19.1584 14.5389 19.5188 14.8626L19.5708 14.9268C19.1798 15.2414 18.688 15.4368 18.1505 15.4552C18.1199 15.4552 18.0925 15.4552 18.0619 15.4552V15.4613C17.4755 15.5162 17.277 15.9408 17.277 16.3745C17.277 16.8724 17.5885 17.2908 18.1505 17.3122C18.8744 17.2969 19.5555 17.0984 20.145 16.7655L20.1511 16.7777C19.9617 17.7031 19.1432 18.3965 18.1627 18.3965C17.0418 18.3965 16.1346 17.4893 16.1346 16.3684C16.1346 15.2475 17.0418 14.3403 18.1627 14.3403H18.1597Z" fill="#E96DF2"/>
<path d="M31.9801 16.7655L31.9861 16.7777C31.7968 17.7031 30.9782 18.3965 29.9978 18.3965C28.8769 18.3965 27.9697 17.4893 27.9697 16.3684C27.9697 15.2475 28.8769 14.3403 29.9978 14.3403C30.5201 14.3403 30.9965 14.5389 31.357 14.8626L31.4089 14.9268C31.0179 15.2414 30.5262 15.4368 29.9886 15.4552C29.9581 15.4552 29.9306 15.4552 29.9001 15.4552V15.4613C29.3136 15.5162 29.1151 15.9408 29.1151 16.3745C29.1151 16.8724 29.4266 17.2908 29.9886 17.3122C30.7125 17.2969 31.3936 17.0984 31.9831 16.7655H31.9801Z" fill="#E96DF2"/>
<path d="M32.3192 13.0361C32.3192 12.9781 32.3192 12.92 32.3131 12.865C32.2245 11.6097 31.18 10.6201 29.9002 10.6201C28.6204 10.6201 27.6675 11.5273 27.5056 12.7032V12.8681H25.6364V12.7123C25.8074 10.5132 27.6461 8.77838 29.891 8.77838C32.1359 8.77838 34.0693 10.5987 34.1549 12.8773C34.1549 12.9322 34.1579 12.9903 34.1579 13.0453C34.1579 14.6427 33.2813 16.0354 31.9802 16.7654C31.3876 17.0983 30.7096 17.2968 29.9857 17.3121C29.4237 17.2907 29.1122 16.8723 29.1122 16.3744C29.1122 15.9407 29.3107 15.5162 29.8971 15.4612V15.4551C29.9277 15.4551 29.9552 15.4551 29.9857 15.4551C30.5233 15.4368 31.015 15.2413 31.406 14.9267C31.9619 14.4838 32.3161 13.8027 32.3161 13.0391L32.3192 13.0361Z" fill="#002140"/>
<path d="M15.6819 12.5932V12.8681H13.7852C13.7852 12.8162 13.7913 12.7643 13.7943 12.7123C13.9654 10.5132 15.804 8.77838 18.049 8.77838C20.2939 8.77838 22.2212 10.5957 22.3128 12.8681C22.3128 12.9261 22.3159 12.9842 22.3159 13.0453C22.3159 14.6427 21.4393 16.0354 20.1381 16.7654C19.5456 17.0983 18.8675 17.2968 18.1437 17.3121C17.5817 17.2907 17.2701 16.8723 17.2701 16.3744C17.2701 15.9407 17.4687 15.5162 18.0551 15.4612V15.4551C18.0856 15.4551 18.1131 15.4551 18.1437 15.4551C18.6812 15.4368 19.173 15.2413 19.5639 14.9267C20.1198 14.4838 20.4741 13.8027 20.4741 13.0391C20.4741 12.9811 20.4741 12.9261 20.468 12.8712C20.3825 11.6158 19.3348 10.6232 18.0551 10.6232C16.8731 10.6232 15.8865 11.4753 15.6758 12.5963L15.6819 12.5932Z" fill="#002140"/>
<path d="M35.7584 19.3126H35.9966V34.7124C35.9966 35.8273 35.0834 36.7405 33.9685 36.7405H14.149C13.0342 36.7405 12.121 35.8273 12.121 34.7124V19.3126H35.7584Z" fill="#FFFAF0"/>
<path d="M34.1704 12.8771C35.1936 12.981 35.9999 13.8484 35.9999 14.8991V19.3156H30.0012V18.3993C30.9817 18.3993 31.8002 17.7029 31.9896 16.7805L31.9835 16.7683C33.2816 16.0383 34.1612 14.6456 34.1612 13.0482C34.1612 12.9901 34.1612 12.9352 34.1582 12.8802H34.1734L34.1704 12.8771Z" fill="#F68DFE"/>
<path d="M32.3197 13.0361C32.3197 13.7997 31.9654 14.4808 31.4096 14.9237L31.3576 14.8595C30.9972 14.5358 30.5207 14.3372 29.9985 14.3372C28.8775 14.3372 27.9704 15.2444 27.9704 16.3653C27.9704 17.4862 28.8775 18.3933 29.9985 18.3933V19.3096H18.1599V18.3933C19.1403 18.3933 19.9589 17.697 20.1483 16.7746L20.1422 16.7623C21.4402 16.0324 22.3199 14.6396 22.3199 13.0422C22.3199 12.9842 22.3199 12.9231 22.3168 12.8651H22.3901H25.6369H32.3136C32.3197 12.92 32.3197 12.9781 32.3197 13.033V13.0361Z" fill="#F68DFE"/>
<path d="M33.8765 32.6538H30.8925V35.6379H33.8765V32.6538Z" fill="#F9B5FE"/>
<path d="M18.1594 19.3128H12.121V14.8963C12.121 13.9036 12.8418 13.0729 13.7856 12.9018C13.9047 12.8804 14.0269 12.8682 14.149 12.8682H20.4715C20.4776 12.9232 20.4776 12.9812 20.4776 13.0362C20.4776 13.7998 20.1233 14.4809 19.5674 14.9238L19.5155 14.8596C19.1551 14.5359 18.6786 14.3373 18.1563 14.3373C17.0354 14.3373 16.1282 15.2445 16.1282 16.3654C16.1282 17.4863 17.0354 18.3935 18.1563 18.3935V19.3098L18.1594 19.3128Z" fill="#F68DFE"/>
<path d="M22.3909 12.8682H25.6346H27.5069H32.2594" stroke="#002140" stroke-width="0.999003" stroke-miterlimit="10"/>
<path d="M13.8475 12.8682H14.9104H14.9288H20.4724H20.4815" stroke="#002140" stroke-width="0.999003" stroke-miterlimit="10"/>
<path d="M14.1497 36.7435C13.0348 36.7435 12.1216 35.8303 12.1216 34.7154V14.896C12.1216 13.9034 12.8424 13.0726 13.7862 12.9016C13.9053 12.8802 14.0275 12.868 14.1497 12.868" stroke="#002140" stroke-width="0.999003" stroke-miterlimit="10"/>
<path d="M34.1313 12.8771C35.1759 12.981 36.0006 13.8484 36.0006 14.896V34.7063C36.0006 35.8211 35.0659 36.7343 33.9267 36.7343H13.7957" stroke="#002140" stroke-width="0.999003" stroke-miterlimit="10"/>
<path d="M12.0669 19.3126H13.3497H19.0766H30.2981H35.7593" stroke="#002140" stroke-width="0.999003" stroke-miterlimit="10"/>
<path d="M13.7831 13.0453C13.7831 12.9964 13.7831 12.9475 13.7861 12.9017C13.7861 12.8895 13.7861 12.8803 13.7861 12.8681C13.7861 12.8162 13.7922 12.7643 13.7953 12.7123" stroke="#002140" stroke-width="0.999003" stroke-miterlimit="10"/>
<path d="M13.7957 12.7123C13.9667 10.5132 15.8054 8.77838 18.0503 8.77838C20.2952 8.77838 22.2225 10.5957 22.3142 12.8681C22.3142 12.9261 22.3172 12.9842 22.3172 13.0453C22.3172 14.6427 21.4406 16.0354 20.1395 16.7654C19.5469 17.0983 18.8689 17.2968 18.145 17.3121C18.1114 17.3121 18.0809 17.3121 18.0473 17.3121" stroke="#002140" stroke-width="0.999003" stroke-miterlimit="10"/>
<path d="M15.6676 12.7032C15.6737 12.6666 15.6768 12.6299 15.6859 12.5933C15.8936 11.4693 16.8802 10.6202 18.0653 10.6202C19.345 10.6202 20.3896 11.6128 20.4782 12.8681C20.4843 12.9231 20.4843 12.9812 20.4843 13.0361C20.4843 13.7997 20.13 14.4808 19.5741 14.9237C19.1831 15.2383 18.6914 15.4338 18.1538 15.4521C18.1233 15.4521 18.0958 15.4521 18.0653 15.4521" stroke="#002140" stroke-width="0.999003" stroke-miterlimit="10"/>
<path d="M18.313 17.309C18.2794 17.3121 18.2489 17.3151 18.2153 17.3151C18.1908 17.3151 18.1694 17.3151 18.1481 17.3151C17.5861 17.2938 17.2745 16.8753 17.2745 16.3775C17.2745 15.9438 17.4731 15.5192 18.0595 15.4642C18.087 15.4612 18.1175 15.4581 18.1481 15.4581" stroke="#002140" stroke-width="0.999003" stroke-miterlimit="10"/>
<path d="M25.6343 12.7123C25.8053 10.5132 27.644 8.77838 29.8889 8.77838C32.1339 8.77838 34.0673 10.5987 34.1528 12.8773C34.1528 12.9322 34.1558 12.9903 34.1558 13.0453C34.1558 14.6427 33.2792 16.0354 31.9781 16.7654C31.3856 17.0983 30.7075 17.2968 29.9836 17.3121C29.95 17.3121 29.9195 17.3121 29.8859 17.3121" stroke="#002140" stroke-width="0.999003" stroke-miterlimit="10"/>
<path d="M27.5062 12.7032C27.6681 11.5273 28.6791 10.6202 29.9008 10.6202C31.1225 10.6202 32.2251 11.6098 32.3137 12.8651C32.3198 12.9231 32.3198 12.9812 32.3198 13.0361C32.3198 13.7997 31.9655 14.4808 31.4097 14.9237C31.0187 15.2383 30.5269 15.4338 29.9894 15.4521C29.9588 15.4521 29.9314 15.4521 29.9008 15.4521" stroke="#002140" stroke-width="0.999003" stroke-miterlimit="10"/>
<path d="M30.1516 17.309C30.118 17.3121 30.0875 17.3151 30.0539 17.3151C30.0295 17.3151 30.0081 17.3151 29.9867 17.3151C29.4247 17.2938 29.1132 16.8753 29.1132 16.3775C29.1132 15.9438 29.3117 15.5192 29.8981 15.4642C29.9256 15.4612 29.9561 15.4581 29.9867 15.4581" stroke="#002140" stroke-width="0.999003" stroke-miterlimit="10"/>
<path d="M33.8774 25.5772H14.4153V26.5485H33.8774V25.5772Z" fill="#FBCCFF"/>
<path d="M33.9141 21.515H14.4153V22.4129H33.9141V21.515Z" fill="#FBCCFF"/>
<path d="M33.9141 29.6364H14.4153V30.5343H33.9141V29.6364Z" fill="#FBCCFF"/>
<path d="M31.4462 33.7598H14.4153V34.6577H31.4462V33.7598Z" fill="#F9B5FE"/>
<path d="M33.4684 33.0786H31.312V35.235H33.4684V33.0786Z" fill="#002140"/>
</svg>

<svg xmlns="http://www.w3.org/2000/svg" fill="none" viewBox="0 0 48 48"><path fill="#e96df2" d="M18.16 14.34c.522 0 .998.199 1.359.523l.052.064a2.4 2.4 0 0 1-1.42.528h-.09v.006c-.585.055-.784.48-.784.914 0 .497.311.916.874.937a4.2 4.2 0 0 0 1.994-.547l.006.013a2.029 2.029 0 1 1-1.988-2.438zm13.82 2.426.006.012a2.029 2.029 0 1 1-.629-1.915l.052.064a2.4 2.4 0 0 1-1.42.528H29.9v.006c-.586.055-.785.48-.785.914 0 .497.312.916.874.937a4.2 4.2 0 0 0 1.994-.547z"/><path fill="#002140" d="M32.32 13.036q.002-.088-.007-.171A2.417 2.417 0 0 0 29.9 10.62c-1.28 0-2.232.907-2.394 2.083v.165h-1.87v-.156a4.27 4.27 0 0 1 4.255-3.934c2.245 0 4.178 1.82 4.264 4.1l.003.167a4.26 4.26 0 0 1-2.178 3.72 4.24 4.24 0 0 1-1.994.547c-.562-.021-.874-.44-.874-.938 0-.433.199-.858.785-.913v-.006h.089a2.4 2.4 0 0 0 1.42-.528c.556-.443.91-1.124.91-1.888zm-16.638-.443v.275h-1.897q.002-.078.01-.156a4.27 4.27 0 0 1 4.254-3.934c2.245 0 4.172 1.818 4.264 4.09l.003.177a4.26 4.26 0 0 1-2.178 3.72 4.24 4.24 0 0 1-1.994.547c-.562-.021-.874-.44-.874-.938 0-.433.199-.858.785-.913v-.006h.089a2.4 2.4 0 0 0 1.42-.528c.556-.443.91-1.124.91-1.888q.002-.086-.006-.168a2.417 2.417 0 0 0-2.413-2.248 2.426 2.426 0 0 0-2.38 1.973z"/><path fill="#fffaf0" d="M35.758 19.313h.239v15.4a2.035 2.035 0 0 1-2.029 2.027H14.15a2.035 2.035 0 0 1-2.028-2.028v-15.4z"/><path fill="#f68dfe" d="M34.17 12.877A2.04 2.04 0 0 1 36 14.9v4.417h-6V18.4c.98 0 1.8-.696 1.989-1.619l-.006-.012a4.27 4.27 0 0 0 2.177-3.72q0-.086-.003-.168h.015z"/><path fill="#f68dfe" d="M32.32 13.036a2.41 2.41 0 0 1-.91 1.888l-.052-.064a2.029 2.029 0 1 0-1.36 3.533v.917H18.16v-.917c.98 0 1.799-.696 1.988-1.618l-.006-.013a4.27 4.27 0 0 0 2.178-3.72q0-.089-.003-.177h9.997q.007.084.006.168z"/><path fill="#f9b5fe" d="M33.877 32.654h-2.985v2.984h2.985z"/><path fill="#f68dfe" d="M18.16 19.313h-6.04v-4.417a2.033 2.033 0 0 1 2.028-2.028h6.323q.008.084.006.168a2.41 2.41 0 0 1-.91 1.888l-.053-.064a2.029 2.029 0 1 0-1.359 3.534v.916z"/><path stroke="#002140" stroke-miterlimit="10" stroke-width=".999" d="M22.39 12.868h9.869m-18.411 0h6.634M14.15 36.744a2.035 2.035 0 0 1-2.028-2.029V14.896a2.033 2.033 0 0 1 2.028-2.028"/><path stroke="#002140" stroke-miterlimit="10" stroke-width=".999" d="M34.131 12.877c1.045.104 1.87.971 1.87 2.019v19.81c0 1.115-.935 2.028-2.074 2.028H13.796m-1.729-17.421h23.692m-21.976-6.268q0-.074.003-.143v-.034q.002-.078.01-.156m0 0a4.27 4.27 0 0 1 4.254-3.934c2.245 0 4.172 1.818 4.264 4.09l.003.177a4.26 4.26 0 0 1-2.177 3.72 4.24 4.24 0 0 1-1.995.547h-.098"/><path stroke="#002140" stroke-miterlimit="10" stroke-width=".999" d="M15.668 12.703c.006-.036.009-.073.018-.11a2.42 2.42 0 0 1 4.792.275q.008.084.006.168c0 .764-.354 1.445-.91 1.888-.39.314-.883.51-1.42.528h-.089m.248 1.857q-.049.005-.098.006h-.067c-.562-.021-.873-.44-.873-.937 0-.434.198-.859.785-.914l.088-.006m7.486-2.746a4.27 4.27 0 0 1 4.255-3.934c2.245 0 4.178 1.82 4.264 4.1l.003.167a4.26 4.26 0 0 1-2.178 3.72 4.24 4.24 0 0 1-1.994.547h-.098"/><path stroke="#002140" stroke-miterlimit="10" stroke-width=".999" d="M27.506 12.703a2.42 2.42 0 0 1 2.395-2.083c1.221 0 2.324.99 2.413 2.245q.008.088.006.171a2.41 2.41 0 0 1-.91 1.888 2.4 2.4 0 0 1-1.42.528h-.09m.252 1.857q-.05.005-.098.006h-.067c-.562-.021-.874-.44-.874-.937 0-.434.199-.859.785-.914l.089-.006"/><path fill="#fbccff" d="M33.877 25.577H14.415v.971h19.462zm.037-4.062H14.415v.898h19.5zm0 8.121H14.415v.898h19.5z"/><path fill="#f9b5fe" d="M31.446 33.76h-17.03v.898h17.03z"/><path fill="#002140" d="M33.468 33.079h-2.156v2.156h2.156z"/></svg>
